swiss/communes/5257.svg

<?xml version="1.0" encoding="UTF-8"?>
<svg width="495.99" height="606.92" xmlns="http://www.w3.org/2000/svg">
 <path d="m3.665 3.666v355.26c0 134.94 109.39 244.33 244.33 244.33s244.33-109.39 244.33-244.33v-355.26z" fill="#f00000" stroke="#000" stroke-width="8"/>
 <path d="m248.31 3.666v599.58c134.8-0.168 244.03-109.49 244.03-244.33v-355.26z" fill="#fff"/>
 <path d="m3.665 3.666v355.26c0 134.94 109.39 244.33 244.33 244.33s244.33-109.39 244.33-244.33v-355.26z" fill="none" stroke="#000" stroke-width="7.33"/>
 <g transform="translate(-2 -2.538)" stroke="#000">
  <path d="m250 606.77v-602.38" stroke-width="3.6652"/>
  <g stroke-width="4.665">
   <g fill="#fff">
    <path d="m96.95 323.07-42.103 141.02h158.03v-39.793c0-14.913 16.619-27.005 37.12-27.005v-74.222z" stroke-width="3.6646"/>
    <path d="m100.33 120.22h87.394v202.96h-87.394z" stroke-width="3.6646"/>
    <path transform="matrix(2.2506 0 0 2.4242 53.302 86.877)" d="m11.544 99.12h75.852v-4.5h-4.517v-10.834h-10.967v10.834h-9.155v-10.834h-10.967v10.834h-9.156v-10.834h-10.967v10.834h-9.155v-10.834h-10.968zm54.405-83.287v-15.333h-10.976v10.833h-9.163v-10.833h-10.977v10.833h-9.162v-10.833h-10.976v15.333z" stroke-width="1.569"/>
   </g>
   <g fill="#f00000">
    <path d="m403.05 323.07 42.103 141.02h-158.03v-39.793c0-14.913-16.621-27.005-37.12-27.005v-74.221z" stroke-width="3.6646"/>
    <path d="m312.28 120.22h87.394v202.96h-87.394z" stroke-width="3.6646"/>
    <path transform="matrix(2.2506 0 0 2.4242 53.302 86.877)" d="m163.25 99.12h-75.852v-4.5h4.517v-10.834h10.966v10.834h9.156v-10.834h10.967v10.834h9.156v-10.834h10.967v10.834h9.155v-10.834h10.968zm-54.41-83.287v-15.333h10.976v10.833h9.163v-10.833h10.976v10.833h9.163v-10.833h10.976v15.333z" stroke-width="1.569"/>
   </g>
  </g>
 </g>
</svg>

<svg width="495.99" height="606.92" xmlns="http://www.w3.org/2000/svg"><path d="M3.665 3.666v355.26c0 134.94 109.39 244.33 244.33 244.33s244.33-109.39 244.33-244.33V3.666z" fill="#f00000" stroke="#000" stroke-width="8"/><path d="M248.31 3.666v599.58c134.8-.168 244.03-109.49 244.03-244.33V3.656z" fill="#fff"/><path d="M3.665 3.666v355.26c0 134.94 109.39 244.33 244.33 244.33s244.33-109.39 244.33-244.33V3.666z" fill="none" stroke="#000" stroke-width="7.33"/><g stroke="#000"><path d="M248 604.232V1.852" stroke-width="3.665"/><g stroke-width="4.665"><g fill="#fff"><path d="m94.95 320.532-42.103 141.02h158.03v-39.793c0-14.913 16.619-27.005 37.12-27.005v-74.222z" stroke-width="3.665"/><path d="M98.33 117.682h87.394v202.96H98.33z" stroke-width="3.665"/><path transform="matrix(2.2506 0 0 2.4242 51.302 84.339)" d="M11.544 99.12h75.852v-4.5h-4.517V83.786H71.912V94.62h-9.155V83.786H51.79V94.62h-9.156V83.786H31.667V94.62h-9.155V83.786H11.544zm54.405-83.287V.5H54.973v10.833H45.81V.5H34.833v10.833h-9.162V.5H14.695v15.333z" stroke-width="1.569"/></g><g fill="#f00000"><path d="m401.05 320.532 42.103 141.02h-158.03v-39.793c0-14.913-16.621-27.005-37.12-27.005v-74.221z" stroke-width="3.665"/><path d="M310.28 117.682h87.394v202.96H310.28z" stroke-width="3.665"/><path transform="matrix(2.2506 0 0 2.4242 51.302 84.339)" d="M163.25 99.12H87.398v-4.5h4.517V83.786h10.966V94.62h9.156V83.786h10.967V94.62h9.156V83.786h10.967V94.62h9.155V83.786h10.968zm-54.41-83.287V.5h10.976v10.833h9.163V.5h10.976v10.833h9.163V.5h10.976v15.333z" stroke-width="1.569"/></g></g></g></svg>
